X:1
T: The Girls of our Town
C:
R:Reel
Q: 232
K:D
M:4/4
L:1/8
|:gf|eB BA ((3Bcd) ef|eB BA d3f|eB BA ce ef|de fe d2 gf|
eB BA ((3Bcd) ef|eB BA d3f|eB BA ce ef|de fe d2 ef|
g2 fg e3g|fg af d2 ef|g2 fg e2 fe|dB AB d2 ef|
g2 fg e3g|fg af d2 ef|ga bg eg fe|dB AB d2:|
